X: 467
T: The Wearing of the Green
N:"moderate"
N:Irish title: cai.tea.d an glas
B:O'Neill's 467
Z:Transcribed by henrik.norbeck@mailbox.swipnet.se
M:C
L:1/8
K:G
(G>A) | BBB>A (B<d)d>B | BAA>G A2 Bd | ecHg>f edHB>G | AGG>G G2 :|
g>f | eedB ddGA | (B{d}c)(B>A) B2 g>f | eedB ddGB | AGFE D2 GA |
BBB>A (B<d)d>B | BAA>G A2 Bd | ecHg>f edHB>G | AGG>G G2 ||


